build/img/gift-big.svg

<svg width="63" height="76" viewBox="0 0 63 76" fill="none" xmlns="http://www.w3.org/2000/svg">
<path d="M60.2 22.1237H60.1H35.8C49.4 15.3237 50.5 11.0237 50 8.62371C48.9 4.72371 44.4 1.72371 40.2 3.32371C34.7 5.42371 33.2 13.6237 31.7 19.5237C29.8 13.5237 28 5.92371 23.7 2.02371C22.5 0.923705 20.7 -0.176294 18 0.0237057C14 0.423706 8.3 5.32371 10.7 10.8237C12.9 16.1237 20.2 19.5237 25.1 22.2237H2.8C1.2 22.2237 0 23.5237 0 25.0237V36.2237C0 37.8237 1.3 39.0237 2.8 39.0237H3.1V75.0237H60.1V39.0237H60.2C61.8 39.0237 63 37.7237 63 36.2237V25.0237C63 23.4237 61.7 22.1237 60.2 22.1237ZM41.8 5.82371C43.9 5.52371 46.7 7.12371 47 9.02371C47.4 11.7237 43.7 14.2237 42 15.3237C39.5 17.0237 37.1 17.9237 34.8 19.3237C35.6 15.6237 37.3 6.42371 41.8 5.82371ZM19.2 15.6237C17 14.1237 12.8 11.2237 12.9 7.92371C13 4.32371 18.6 1.42371 21.6 4.12371C25.4 7.42371 27.2 15.1237 28.6 20.5237C25.4 18.9237 22.4 17.7237 19.2 15.6237ZM25.1 72.0237H6V39.0237H25.1V72.0237ZM25.1 36.0237H3V25.1237H25.1V36.0237ZM35.1 72.0237H28V25.1237H35.1V72.0237ZM57.1 72.0237H38.1V39.0237H57.2V72.0237H57.1ZM60 36.0237H38.1V25.1237H60V36.0237Z" fill="#81B3D2"/>
</svg>

<svg width="63" height="76" fill="none" xmlns="http://www.w3.org/2000/svg"><path d="M60.2 22.124H35.8c13.6-6.8 14.7-11.1 14.2-13.5-1.1-3.9-5.6-6.9-9.8-5.3-5.5 2.1-7 10.3-8.5 16.2-1.9-6-3.7-13.6-8-17.5-1.2-1.1-3-2.2-5.7-2-4 .4-9.7 5.3-7.3 10.8 2.2 5.3 9.5 8.7 14.4 11.4H2.8c-1.6 0-2.8 1.3-2.8 2.8v11.2c0 1.6 1.3 2.8 2.8 2.8h.3v36h57v-36h.1c1.6 0 2.8-1.3 2.8-2.8v-11.2c0-1.6-1.3-2.9-2.8-2.9zm-18.4-16.3c2.1-.3 4.9 1.3 5.2 3.2.4 2.7-3.3 5.2-5 6.3-2.5 1.7-4.9 2.6-7.2 4 .8-3.7 2.5-12.9 7-13.5zm-22.6 9.8c-2.2-1.5-6.4-4.4-6.3-7.7.1-3.6 5.7-6.5 8.7-3.8 3.8 3.3 5.6 11 7 16.4-3.2-1.6-6.2-2.8-9.4-4.9zm5.9 56.4H6v-33h19.1v33zm0-36H3v-10.9h22.1v10.9zm10 36H28v-46.9h7.1v46.9zm22 0h-19v-33h19.1v33h-.1zm2.9-36H38.1v-10.9H60v10.9z" fill="#81B3D2"/></svg>
